packages/heroicons/src/prism/left-right.svg

<!-- Generated by IcoMoon.io -->
<svg version="1.1" xmlns="http://www.w3.org/2000/svg" width="16" height="16" viewBox="0 0 16 16">
<title>left-right</title>
<path fill="#4a4a4a" d="M12 6h-11v-2h11v-2.5l3.5 3.5-3.5 3.5zM4 10h11v2h-11v2.5l-3.5-3.5 3.5-3.5z"></path>
</svg>

<svg xmlns="http://www.w3.org/2000/svg" aria-hidden="true" fill="currentColor" viewBox="0 0 16 16">
  <path d="M12 6H1V4h11V1.5L15.5 5 12 8.5zm-8 4h11v2H4v2.5L.5 11 4 7.5z"/>
</svg>
